src/assets/icons/filters/categories/furniture.svg

<svg width="48" height="38" viewBox="0 0 48 38" fill="none" xmlns="http://www.w3.org/2000/svg">
<path fill-rule="evenodd" clip-rule="evenodd" d="M46.7533 22.4068C46.7857 22.3663 46.8342 22.342 46.8634 22.2967C47.511 21.3447 47.8996 20.2275 47.9806 19.0714C48.0459 18.2071 47.939 17.3385 47.666 16.5158C47.3931 15.6931 46.9596 14.9328 46.3906 14.2789C45.9831 13.8231 45.5145 13.4259 44.9982 13.0986V9.02975C44.9982 4.04938 40.3352 0 34.6019 0H30.0279C27.5539 0 25.373 1.21595 24 3.06335C22.627 1.21757 20.4461 0 17.9721 0H13.3981C7.66323 0 3.0002 4.04938 3.0002 9.02975V13.0791C2.08066 13.6764 1.32469 14.4937 0.800804 15.4569C0.276915 16.4202 0.00166629 17.4989 0 18.5954C0 19.9749 0.45335 21.2961 1.24671 22.4068C0.477637 23.2164 0 24.3012 0 25.4993V29.9988C0.00128573 31.1922 0.475922 32.3363 1.31977 33.1801C2.16361 34.024 3.30774 34.4986 4.50111 34.4999V35.9992C4.50111 36.3968 4.65907 36.7782 4.94025 37.0594C5.22142 37.3405 5.60277 37.4985 6.00041 37.4985C6.39804 37.4985 6.77939 37.3405 7.06056 37.0594C7.34174 36.7782 7.4997 36.3968 7.4997 35.9992V34.4983H40.5003V35.9992C40.5003 36.3968 40.6583 36.7782 40.9394 37.0594C41.2206 37.3405 41.602 37.4985 41.9996 37.4985C42.3972 37.4985 42.7786 37.3405 43.0598 37.0594C43.3409 36.7782 43.4989 36.3968 43.4989 35.9992V34.4983C44.692 34.497 45.8359 34.0226 46.6797 33.1791C47.5235 32.3356 47.9983 31.1919 48 29.9988V25.4977C48 24.2995 47.5207 23.2147 46.7533 22.4052V22.4068Z" fill="#CFD8DC"/>
<path fill-rule="evenodd" clip-rule="evenodd" d="M44.9998 29.9988C44.9994 30.3966 44.841 30.7779 44.5596 31.059C44.2782 31.3402 43.8967 31.4981 43.4989 31.4981H4.50111C4.10333 31.4981 3.72181 31.3402 3.44038 31.059C3.15895 30.7779 3.00063 30.3966 3.0002 29.9988V25.4977C3.0002 24.6719 3.67213 23.9984 4.50111 23.9984H43.4989C44.3279 23.9984 44.9998 24.6703 44.9998 25.4993V29.9988V29.9988ZM6.59785 14.9994C7.28903 15.0014 7.96502 15.2023 8.54513 15.578C9.12524 15.9538 9.58494 16.4886 9.86935 17.1185C10.1538 17.7485 10.2509 18.447 10.1491 19.1306C10.0473 19.8142 9.75089 20.4541 9.29528 20.9739L9.28233 20.9998H4.50111C4.31006 20.9998 4.12872 21.0322 3.94738 21.0548C3.92633 21.0306 3.91985 20.9982 3.89881 20.9723C3.31909 20.3163 2.99946 19.4709 3.0002 18.5954C3.0002 16.6136 4.61445 14.9994 6.59785 14.9994V14.9994ZM6.00041 9.02975C6.00041 5.70411 9.31957 3.0002 13.3997 3.0002H17.9721C19.1725 3.00149 20.3234 3.4788 21.1723 4.32746C22.0213 5.17611 22.499 6.32683 22.5007 7.52722V20.9982H12.7359C13.0322 20.2404 13.1941 19.4276 13.1941 18.5954C13.1915 16.8468 12.4957 15.1705 11.2593 13.934C10.0228 12.6975 8.3465 12.0018 6.59785 11.9992C6.39385 11.9992 6.19956 12.0413 6.00041 12.0591V9.02975V9.02975ZM30.0279 3.0002H34.6019C38.682 3.0002 41.9996 5.70411 41.9996 9.02975V12.0364C41.9575 12.0332 41.9186 12.0202 41.8765 12.017C41.0124 11.9517 40.1438 12.0587 39.3213 12.332C38.4989 12.6052 37.7389 13.0391 37.0856 13.6086C36.4286 14.1738 35.8903 14.8639 35.5021 15.6388C35.1138 16.4137 34.8832 17.258 34.8237 18.1226C34.7602 19.1041 34.9179 20.0874 35.2852 20.9998H25.4993V7.52884C25.5006 6.32817 25.9781 5.17703 26.8271 4.32803C27.6761 3.47902 28.8273 3.00149 30.0279 3.0002V3.0002ZM43.4989 20.9998H38.648C38.6092 20.9237 38.593 20.8427 38.5396 20.7764C38.1206 20.2254 37.8694 19.5653 37.816 18.8752C37.7626 18.1851 37.9094 17.4943 38.2387 16.8855C38.5679 16.2767 39.0658 15.7757 39.6725 15.4426C40.2793 15.1095 40.9692 14.9584 41.6596 15.0075C42.1311 15.0406 42.5913 15.1668 43.0138 15.3788C43.4362 15.5909 43.8124 15.8845 44.1206 16.2429C44.7505 16.9682 45.0597 17.8976 44.9901 18.8545C44.9431 19.4859 44.7343 20.0931 44.3829 20.6128C44.2927 20.7527 44.2275 20.9072 44.1902 21.0694C43.962 21.0279 43.7308 21.0046 43.4989 20.9998ZM46.7533 22.4068C46.7857 22.3663 46.8342 22.342 46.8634 22.2967C47.511 21.3447 47.8996 20.2275 47.9806 19.0714C48.0459 18.2071 47.939 17.3385 47.666 16.5158C47.3931 15.6931 46.9596 14.9328 46.3906 14.2789C45.9831 13.8231 45.5145 13.4259 44.9982 13.0986V9.02975C44.9982 4.04938 40.3352 0 34.6019 0H30.0279C27.5539 0 25.373 1.21595 24 3.06335C22.627 1.21757 20.4461 0 17.9721 0H13.3981C7.66323 0 3.0002 4.04938 3.0002 9.02975V13.0791C2.08066 13.6764 1.32469 14.4937 0.800804 15.4569C0.276915 16.4202 0.00166629 17.4989 0 18.5954C0 19.9749 0.45335 21.2961 1.24671 22.4068C0.477637 23.2164 0 24.3012 0 25.4993V29.9988C0.00128573 31.1922 0.475922 32.3363 1.31977 33.1801C2.16361 34.024 3.30774 34.4986 4.50111 34.4999V35.9992C4.50111 36.3968 4.65907 36.7782 4.94025 37.0594C5.22142 37.3405 5.60277 37.4985 6.00041 37.4985C6.39804 37.4985 6.77939 37.3405 7.06056 37.0594C7.34174 36.7782 7.4997 36.3968 7.4997 35.9992V34.4983H40.5003V35.9992C40.5003 36.3968 40.6583 36.7782 40.9394 37.0594C41.2206 37.3405 41.602 37.4985 41.9996 37.4985C42.3972 37.4985 42.7786 37.3405 43.0598 37.0594C43.3409 36.7782 43.4989 36.3968 43.4989 35.9992V34.4983C44.692 34.497 45.8359 34.0226 46.6797 33.1791C47.5235 32.3356 47.9983 31.1919 48 29.9988V25.4977C48 24.2995 47.5207 23.2147 46.7533 22.4052V22.4068Z" fill="#253238"/>
<path fill-rule="evenodd" clip-rule="evenodd" d="M6.59814 14.9994C7.28931 15.0014 7.96531 15.2022 8.54542 15.578C9.12552 15.9538 9.58523 16.4885 9.86964 17.1185C10.1541 17.7484 10.2512 18.4469 10.1494 19.1306C10.0476 19.8142 9.75118 20.4541 9.29557 20.9739L9.28262 20.9998H4.5014C4.31035 20.9998 4.12901 21.0321 3.94767 21.0548C3.92662 21.0305 3.92014 20.9982 3.89909 20.9722C3.31938 20.3163 2.99975 19.4708 3.00049 18.5954C3.00049 16.6136 4.61474 14.9994 6.59814 14.9994V14.9994ZM43.4992 20.9998H38.6483C38.6095 20.9237 38.5933 20.8427 38.5399 20.7763C38.1209 20.2254 37.8697 19.5653 37.8163 18.8752C37.7629 18.1851 37.9097 17.4943 38.2389 16.8854C38.5682 16.2766 39.0661 15.7757 39.6728 15.4426C40.2795 15.1095 40.9695 14.9584 41.6599 15.0075C42.1314 15.0405 42.5916 15.1668 43.014 15.3788C43.4365 15.5908 43.8127 15.8845 44.1209 16.2428C44.7507 16.9682 45.06 17.8976 44.9904 18.8545C44.9434 19.4859 44.7345 20.0931 44.3832 20.6128C44.293 20.7527 44.2278 20.9072 44.1905 21.0694C43.9623 21.0279 43.7311 21.0046 43.4992 20.9998V20.9998Z" fill="white" fill-opacity="0.6"/>
</svg>

<svg width="48" height="38" viewBox="0 0 48 38" fill="none" xmlns="http://www.w3.org/2000/svg"><path fill-rule="evenodd" clip-rule="evenodd" d="M46.753 22.407c.033-.04.081-.065.11-.11a6.562 6.562 0 001.118-3.226 6.548 6.548 0 00-1.59-4.792 6.628 6.628 0 00-1.393-1.18v-4.07C44.998 4.05 40.335 0 34.602 0h-4.574C27.554 0 25.373 1.216 24 3.063 22.627 1.218 20.446 0 17.972 0h-4.574C7.663 0 3 4.05 3 9.03v4.05a6.59 6.59 0 00-3 5.515c0 1.38.453 2.701 1.247 3.812A4.476 4.476 0 000 25.499V30a4.506 4.506 0 004.501 4.5V36A1.5 1.5 0 007.5 36v-1.5h33v1.5a1.5 1.5 0 002.999 0v-1.5a4.506 4.506 0 004.501-4.5v-4.501c0-1.199-.48-2.283-1.247-3.093v.002z" fill="#CFD8DC"/><path fill-rule="evenodd" clip-rule="evenodd" d="M45 29.999a1.5 1.5 0 01-1.501 1.5H4.5a1.5 1.5 0 01-1.5-1.5v-4.501c0-.826.671-1.5 1.5-1.5H43.5a1.5 1.5 0 011.5 1.501V30zm-38.402-15a3.601 3.601 0 012.697 5.975L9.282 21h-4.78c-.192 0-.373.032-.555.055-.02-.024-.027-.057-.048-.083A3.585 3.585 0 013 18.595 3.602 3.602 0 016.598 15zM6 9.03C6 5.705 9.32 3 13.4 3h4.572a4.533 4.533 0 014.529 4.527v13.471h-9.765c.296-.758.458-1.57.458-2.403A6.606 6.606 0 006.598 12c-.204 0-.398.042-.598.06V9.03zM30.028 3h4.574C38.682 3 42 5.704 42 9.03v3.006c-.042-.003-.081-.016-.123-.019a6.54 6.54 0 00-4.791 1.592 6.546 6.546 0 00-2.262 4.514A6.569 6.569 0 0035.285 21H25.5V7.529A4.534 4.534 0 0130.028 3zm13.47 18h-4.85c-.039-.076-.055-.157-.108-.224a3.6 3.6 0 014.474-5.397c.422.212.798.505 1.107.864.63.725.939 1.655.87 2.612a3.619 3.619 0 01-.608 1.758c-.09.14-.156.294-.193.456A4.37 4.37 0 0043.5 21zm3.255 1.407c.033-.04.081-.065.11-.11a6.562 6.562 0 001.118-3.226 6.548 6.548 0 00-1.59-4.792 6.628 6.628 0 00-1.393-1.18v-4.07C44.998 4.05 40.335 0 34.602 0h-4.574C27.554 0 25.373 1.216 24 3.063 22.627 1.218 20.446 0 17.972 0h-4.574C7.663 0 3 4.05 3 9.03v4.05a6.59 6.59 0 00-3 5.515c0 1.38.453 2.701 1.247 3.812A4.476 4.476 0 000 25.499V30a4.506 4.506 0 004.501 4.5V36A1.5 1.5 0 007.5 36v-1.5h33v1.5a1.5 1.5 0 002.999 0v-1.5a4.506 4.506 0 004.501-4.5v-4.501c0-1.199-.48-2.283-1.247-3.093v.002z" fill="#253238"/><path fill-rule="evenodd" clip-rule="evenodd" d="M6.598 15a3.6 3.6 0 012.698 5.974L9.283 21H4.5c-.19 0-.372.032-.553.055-.021-.024-.028-.057-.049-.083A3.585 3.585 0 013 18.595 3.602 3.602 0 016.598 15zM43.5 21h-4.85c-.04-.076-.056-.157-.11-.224a3.599 3.599 0 014.475-5.397c.422.212.799.505 1.107.864.63.725.939 1.655.87 2.612a3.62 3.62 0 01-.608 1.758c-.09.14-.155.294-.193.456a4.37 4.37 0 00-.69-.07z" fill="#fff" fill-opacity=".6"/></svg>
